X:1
T:Young Frances Mooney
M:6/8
L:1/8
R:jig
N:Learned from Solstice Festival 2000 workshop
K:Em
|:~E3 G2A|BAB d2A|FDD ADD|FAG FED|
~E3 G2A|BAB d2e|fed efg|fee e2B:|
|:~e3 fdB|~e3 fdB|ded dAF|ded Bcd|
~e3 fdB|~e3 g2a|bag f/2g/2af|gee e3:|
